docs/assets/hair_curlyShort_red.svg

<svg width="450" height="378" viewBox="0 0 450 378" fill="none" xmlns="http://www.w3.org/2000/svg">
<path d="M226.021 84.1279C226.021 84.1279 215.468 79.7019 202.872 81.4049C182.982 84.0929 160.659 98.0859 152.489 113.575C152.489 113.575 157.766 122.426 158.106 128.554C158.446 134.678 156.549 140.96 157.255 144.214C160.319 158.342 167.638 187.788 167.638 187.788C167.638 187.788 158.787 194.767 152.319 193.065C145.076 191.159 145.17 186.597 145.17 186.597C145.17 186.597 139.383 193.406 132.574 188.98C127.581 185.735 128.829 178.086 128.829 178.086C128.829 178.086 120.999 182.852 117.255 178.767C112.086 173.128 115.553 167.533 115.553 167.533C115.553 167.533 108.744 170.256 104.319 164.129C100.229 158.466 106.021 151.874 106.021 151.874C106.021 151.874 98.6251 151.133 97.5101 144.725C96.1481 136.895 101.595 134.172 101.595 134.172C101.595 134.172 94.7861 132.657 94.7861 124.981C94.7861 117.832 102.956 116.13 102.956 116.13C102.956 116.13 96.1471 110.343 98.6161 103.619C101.481 95.8159 108.744 96.3849 108.744 96.3849C108.744 96.3849 103.686 89.8399 107.723 83.4489C111.808 76.9809 120.319 79.0229 120.319 79.0229C120.319 79.0229 116.574 72.2139 123.042 66.4269C129.059 61.0429 136.999 66.4269 136.999 66.4269C136.999 66.4269 135.297 58.9379 144.148 55.5329C151.233 52.8079 156.318 58.6819 156.318 58.6819C156.318 58.6819 158.871 52.0439 165.254 51.5329C171.891 51.0019 175.807 57.1929 175.807 57.1929C175.807 57.1929 179.806 49.3839 188.062 51.4479C196.232 53.4909 195.892 61.1499 195.892 61.1499C195.892 61.1499 201.927 57.1479 207.126 59.9589C213.426 63.3619 213.766 69.9999 213.766 69.9999C213.766 69.9999 219.602 68.0059 224.489 72.8939C229.255 77.6599 226.021 84.1279 226.021 84.1279Z" fill="#9C1F00" stroke="#3E2670" stroke-width="4" stroke-miterlimit="10"/>
<path opacity="0.2" d="M156.404 144.213C159.468 158.341 166.787 187.787 166.787 187.787C166.787 187.787 157.936 194.766 151.468 193.064C144.225 191.158 144.319 186.596 144.319 186.596C144.319 186.596 138.532 193.405 131.723 188.979C126.73 185.734 127.978 178.085 127.978 178.085C127.978 178.085 120.148 182.851 116.404 178.766C111.235 173.127 114.702 167.532 114.702 167.532C114.702 167.532 107.893 170.255 103.468 164.128C99.3781 158.465 105.17 151.873 105.17 151.873C105.17 151.873 97.7741 151.132 96.6591 144.724C95.2971 136.894 100.744 134.171 100.744 134.171C100.744 134.171 93.9351 132.656 93.9351 124.98C93.9351 117.831 102.105 116.129 102.105 116.129C102.105 116.129 103.193 126.349 116.062 134.852C135.126 147.448 137.863 142.518 143.296 142.001C150.447 141.319 156.167 143.12 156.404 144.213Z" fill="#3E2670"/>
<path d="M194.398 69.9855C193.164 69.5385 191.687 69.5745 190.415 70.1035C189.145 70.6335 188.08 71.4955 187.171 72.4455C186.779 72.8585 186.427 73.2855 186.095 73.7305C185.833 73.3505 185.555 72.9815 185.242 72.6155C184.455 71.7175 183.497 70.9215 182.385 70.3215C180.157 69.0815 177.357 68.9195 175.01 69.5475C173.746 69.8245 172.397 70.5315 171.415 71.4545C170.401 72.3755 169.654 73.4695 169.103 74.5855C168.556 75.7065 168.181 76.8525 167.909 77.9985C167.867 78.1735 167.848 78.3505 167.812 78.5255C167.632 78.4765 167.458 78.4125 167.276 78.3685C166.129 78.0975 164.945 77.9135 163.713 77.8915C162.486 77.8725 161.211 78.0185 159.963 78.3995C158.717 78.7735 157.506 79.4175 156.504 80.2745C154.446 81.9425 153.268 84.5735 153.089 86.9815C152.965 88.1965 153.048 89.3805 153.239 90.5185C153.342 91.1365 153.482 91.7215 153.659 92.3045C153.441 92.3475 153.223 92.3785 153.002 92.4345C152.18 92.6545 151.369 92.9525 150.614 93.3825C149.856 93.7975 149.183 94.4145 148.705 95.1295C148.231 95.8575 148.034 96.7045 148.064 97.4895C148.353 96.7495 148.801 96.1335 149.349 95.6935C149.902 95.2515 150.554 94.9975 151.223 94.8225C151.893 94.6475 152.6 94.5825 153.307 94.5835C153.997 94.5835 154.761 94.6155 155.366 94.7335L157.146 95.0775L156.724 92.9565C156.374 91.1965 156.31 89.1785 156.68 87.5115C157.054 85.8085 157.888 84.4595 159.136 83.5575C160.355 82.6605 161.888 82.2745 163.599 82.3575C164.448 82.3805 165.329 82.5255 166.202 82.7425C166.639 82.8525 167.073 82.9865 167.503 83.1285C167.913 83.2645 168.397 83.4535 168.691 83.5895L171.861 85.0545L171.928 81.5985C171.943 80.8255 172.077 79.8175 172.247 78.9545C172.426 78.0675 172.682 77.2115 173.025 76.4465C173.37 75.6855 173.783 75.0035 174.291 74.4925C174.54 74.2295 174.814 74.0135 175.109 73.8345C175.413 73.6395 175.682 73.5075 176.093 73.3775C177.731 72.8325 179.378 72.7675 180.916 73.3895C181.691 73.6825 182.421 74.1635 183.105 74.7385C183.775 75.2975 184.439 76.0605 184.876 76.7335L186.321 78.9565L187.188 76.6955C187.561 75.7225 188.137 74.6675 188.757 73.7525C189.396 72.8325 190.158 72.0005 191.075 71.4355C191.983 70.8685 193.07 70.5955 194.2 70.7705C195.326 70.9425 196.439 71.4755 197.458 72.1535C196.634 71.2475 195.633 70.4425 194.398 69.9855Z" fill="#DA725A"/>
<path d="M147.91 83.5603C147.821 83.2183 147.712 82.6253 147.656 82.1383C147.597 81.6253 147.559 81.1093 147.545 80.5983C147.524 79.5773 147.615 78.5733 147.853 77.6533C148.304 75.7793 149.327 74.3483 150.945 73.2693C152.538 72.1243 154.349 71.5574 156.442 71.8294C158.531 72.0954 160.713 73.1383 162.761 74.5473C161.682 72.2743 159.815 70.2973 157.258 69.1173C155.974 68.5533 154.495 68.2533 153.001 68.3343C151.513 68.4223 150.035 68.8403 148.756 69.5153C147.467 70.1573 146.231 71.1613 145.285 72.3623C144.328 73.5643 143.641 74.9554 143.228 76.3694C142.813 77.7864 142.646 79.2173 142.629 80.6183C142.628 80.6593 142.632 80.6993 142.631 80.7403C142.457 80.7073 142.284 80.6693 142.108 80.6403C140.592 80.4003 139 80.3364 137.379 80.5934C135.766 80.8464 134.136 81.4624 132.73 82.4144C131.329 83.3714 130.191 84.6573 129.38 86.0053C128.568 87.3293 127.916 88.8383 127.657 90.4733C127.371 92.0953 127.498 93.8053 127.975 95.3343C128.434 96.8763 129.22 98.2383 130.138 99.4183C130.477 99.8503 130.831 100.245 131.198 100.625C131.049 100.683 130.901 100.736 130.751 100.8C129.669 101.274 128.636 101.9 127.751 102.708C126.863 103.511 126.186 104.555 125.823 105.656C125.446 106.758 125.43 107.914 125.595 108.98C125.782 107.909 126.126 106.896 126.681 106.059C127.216 105.208 127.98 104.577 128.798 104.086C129.628 103.602 130.55 103.279 131.504 103.083C132.434 102.889 133.487 102.772 134.336 102.811L138.161 102.985L135.178 100.133C134.406 99.3954 133.614 98.3763 133.036 97.4063C132.44 96.4153 132.027 95.3663 131.827 94.3393C131.423 92.2733 131.989 90.3113 133.256 88.5153C134.475 86.7503 136.095 85.7313 138.118 85.4793C139.119 85.3333 140.208 85.3733 141.304 85.5613C141.852 85.6523 142.401 85.7884 142.946 85.9384C143.464 86.0844 144.083 86.3023 144.45 86.4633L149.206 88.5514L147.91 83.5603Z" fill="#DA725A"/>
<path d="M225.17 84.1279C225.17 84.1279 214.617 79.7019 202.021 81.4049C182.131 84.0929 159.808 98.0859 151.638 113.575C151.638 113.575 156.915 122.426 157.255 128.554C157.595 134.678 155.698 140.96 156.404 144.214C159.468 158.342 166.787 187.788 166.787 187.788C166.787 187.788 157.936 194.767 151.468 193.065C144.225 191.159 144.319 186.597 144.319 186.597C144.319 186.597 138.532 193.406 131.723 188.98C126.73 185.735 127.978 178.086 127.978 178.086C127.978 178.086 120.148 182.852 116.404 178.767C111.235 173.128 114.702 167.533 114.702 167.533C114.702 167.533 107.893 170.256 103.468 164.129C99.3781 158.466 105.17 151.874 105.17 151.874C105.17 151.874 97.7741 151.133 96.6591 144.725C95.2971 136.895 100.744 134.172 100.744 134.172C100.744 134.172 93.9351 132.657 93.9351 124.981C93.9351 117.832 102.105 116.13 102.105 116.13C102.105 116.13 95.2961 110.343 97.7651 103.619C100.63 95.8159 107.893 96.3849 107.893 96.3849C107.893 96.3849 102.835 89.8399 106.872 83.4489C110.957 76.9809 119.468 79.0229 119.468 79.0229C119.468 79.0229 115.723 72.2139 122.191 66.4269C128.208 61.0429 136.148 66.4269 136.148 66.4269C136.148 66.4269 134.446 58.9379 143.297 55.5329C150.382 52.8079 155.467 58.6819 155.467 58.6819C155.467 58.6819 158.02 52.0439 164.403 51.5329C171.04 51.0019 174.956 57.1929 174.956 57.1929C174.956 57.1929 178.955 49.3839 187.211 51.4479C195.381 53.4909 195.041 61.1499 195.041 61.1499C195.041 61.1499 201.076 57.1479 206.275 59.9589C212.574 63.3619 212.915 69.9999 212.915 69.9999C212.915 69.9999 218.751 68.0059 223.638 72.8939C228.404 77.6599 225.17 84.1279 225.17 84.1279Z" stroke="#3E2670" stroke-width="5" stroke-miterlimit="10"/>
</svg>

<?xml version="1.0" encoding="utf-8"?>
<!-- Generator: Adobe Illustrator 23.0.1, SVG Export Plug-In . SVG Version: 6.00 Build 0)  -->
<svg version="1.1" id="Hair" xmlns="http://www.w3.org/2000/svg" xmlns:xlink="http://www.w3.org/1999/xlink" x="0px" y="0px"
	 width="450px" height="378px" viewBox="0 0 450 378" enable-background="new 0 0 450 378" xml:space="preserve">
<path fill="#DC4A26" d="M226.021,84.128c0,0-10.553-4.426-23.149-2.723c-19.89,2.688-42.213,16.681-50.383,32.17
	c0,0,5.277,8.851,5.617,14.979c0.34,6.124-1.557,12.406-0.851,15.66c3.064,14.128,10.383,43.574,10.383,43.574
	s-8.851,6.979-15.319,5.277c-7.243-1.906-7.149-6.468-7.149-6.468s-5.787,6.809-12.596,2.383
	c-4.993-3.245-3.745-10.894-3.745-10.894s-7.83,4.766-11.574,0.681c-5.169-5.639-1.702-11.234-1.702-11.234
	s-6.809,2.723-11.234-3.404c-4.09-5.663,1.702-12.255,1.702-12.255s-7.396-0.741-8.511-7.149c-1.362-7.83,4.085-10.553,4.085-10.553
	s-6.809-1.515-6.809-9.191c0-7.149,8.17-8.851,8.17-8.851s-6.809-5.787-4.34-12.511c2.865-7.803,10.128-7.234,10.128-7.234
	s-5.058-6.545-1.021-12.936c4.085-6.468,12.596-4.426,12.596-4.426s-3.745-6.809,2.723-12.596c6.017-5.384,13.957,0,13.957,0
	s-1.702-7.489,7.149-10.894c7.085-2.725,12.17,3.149,12.17,3.149s2.553-6.638,8.936-7.149c6.637-0.531,10.553,5.66,10.553,5.66
	s3.999-7.809,12.255-5.745c8.17,2.043,7.83,9.702,7.83,9.702s6.035-4.002,11.234-1.191C213.426,63.362,213.766,70,213.766,70
	s5.836-1.994,10.723,2.894C229.255,77.66,226.021,84.128,226.021,84.128z"/>
<path opacity="0.3" fill="#3E2670" d="M156.404,144.213c3.064,14.128,10.383,43.574,10.383,43.574s-8.851,6.979-15.319,5.277
	c-7.243-1.906-7.149-6.468-7.149-6.468s-5.787,6.809-12.596,2.383c-4.993-3.245-3.745-10.894-3.745-10.894s-7.83,4.766-11.574,0.681
	c-5.169-5.639-1.702-11.234-1.702-11.234s-6.809,2.723-11.234-3.404c-4.09-5.663,1.702-12.255,1.702-12.255
	s-7.396-0.741-8.511-7.149c-1.362-7.83,4.085-10.553,4.085-10.553s-6.809-1.515-6.809-9.191c0-7.149,8.17-8.851,8.17-8.851
	s1.088,10.22,13.957,18.723c19.064,12.596,21.801,7.666,27.234,7.149C150.447,141.319,156.167,143.12,156.404,144.213z"/>
<path opacity="0.4" fill="#FFFFFF" d="M194.398,69.986c-1.234-0.447-2.711-0.411-3.983,0.118c-1.27,0.53-2.335,1.392-3.244,2.342
	c-0.392,0.413-0.744,0.84-1.076,1.285c-0.262-0.38-0.54-0.749-0.853-1.115c-0.787-0.898-1.745-1.694-2.857-2.294
	c-2.228-1.24-5.028-1.402-7.375-0.774c-1.264,0.277-2.613,0.984-3.595,1.907c-1.014,0.921-1.761,2.015-2.312,3.131
	c-0.547,1.121-0.922,2.267-1.194,3.413c-0.042,0.175-0.061,0.352-0.097,0.527c-0.18-0.049-0.354-0.113-0.536-0.157
	c-1.147-0.271-2.331-0.455-3.563-0.477c-1.227-0.019-2.502,0.127-3.75,0.508c-1.246,0.374-2.457,1.018-3.459,1.875
	c-2.058,1.668-3.236,4.299-3.415,6.707c-0.124,1.215-0.041,2.399,0.15,3.537c0.103,0.618,0.243,1.203,0.42,1.786
	c-0.218,0.043-0.436,0.074-0.657,0.13c-0.822,0.22-1.633,0.518-2.388,0.948c-0.758,0.415-1.431,1.032-1.909,1.747
	c-0.474,0.728-0.671,1.575-0.641,2.36c0.289-0.74,0.737-1.356,1.285-1.796c0.553-0.442,1.205-0.696,1.874-0.871
	c0.67-0.175,1.377-0.24,2.084-0.239c0.69,0,1.454,0.032,2.059,0.15l1.78,0.344l-0.422-2.121c-0.35-1.76-0.414-3.778-0.044-5.445
	c0.374-1.703,1.208-3.052,2.456-3.954c1.219-0.897,2.752-1.283,4.463-1.2c0.849,0.023,1.73,0.168,2.603,0.385
	c0.437,0.11,0.871,0.244,1.301,0.386c0.41,0.136,0.894,0.325,1.188,0.461l3.17,1.465l0.067-3.456
	c0.015-0.773,0.149-1.781,0.319-2.644c0.179-0.887,0.435-1.743,0.778-2.508c0.345-0.761,0.758-1.443,1.266-1.954
	c0.249-0.263,0.523-0.479,0.818-0.658c0.304-0.195,0.573-0.327,0.984-0.457c1.638-0.545,3.285-0.61,4.823,0.012
	c0.775,0.293,1.505,0.774,2.189,1.349c0.67,0.559,1.334,1.322,1.771,1.995l1.445,2.223l0.867-2.261
	c0.373-0.973,0.949-2.028,1.569-2.943c0.639-0.92,1.401-1.752,2.318-2.317c0.908-0.567,1.995-0.84,3.125-0.665
	c1.126,0.172,2.239,0.705,3.258,1.383C196.634,71.248,195.633,70.443,194.398,69.986z"/>
<path opacity="0.4" fill="#FFFFFF" d="M147.91,83.56c-0.089-0.342-0.198-0.935-0.254-1.422c-0.059-0.513-0.097-1.029-0.111-1.54
	c-0.021-1.021,0.07-2.025,0.308-2.945c0.451-1.874,1.474-3.305,3.092-4.384c1.593-1.145,3.404-1.712,5.497-1.44
	c2.089,0.266,4.271,1.309,6.319,2.718c-1.079-2.273-2.946-4.25-5.503-5.43c-1.284-0.564-2.763-0.864-4.257-0.783
	c-1.488,0.088-2.966,0.506-4.245,1.181c-1.289,0.642-2.525,1.646-3.471,2.847c-0.957,1.202-1.644,2.593-2.057,4.007
	c-0.415,1.417-0.582,2.848-0.599,4.249c-0.001,0.041,0.003,0.081,0.002,0.122c-0.174-0.033-0.347-0.071-0.523-0.1
	c-1.516-0.24-3.108-0.304-4.729-0.047c-1.613,0.253-3.243,0.869-4.649,1.821c-1.401,0.957-2.539,2.243-3.35,3.591
	c-0.812,1.324-1.464,2.833-1.723,4.468c-0.286,1.622-0.159,3.332,0.318,4.861c0.459,1.542,1.245,2.904,2.163,4.084
	c0.339,0.432,0.693,0.827,1.06,1.207c-0.149,0.058-0.297,0.111-0.447,0.175c-1.082,0.474-2.115,1.1-3,1.908
	c-0.888,0.803-1.565,1.847-1.928,2.948c-0.377,1.102-0.393,2.258-0.228,3.324c0.187-1.071,0.531-2.084,1.086-2.921
	c0.535-0.851,1.299-1.482,2.117-1.973c0.83-0.484,1.752-0.807,2.706-1.003c0.93-0.194,1.983-0.311,2.832-0.272l3.825,0.174
	l-2.983-2.852c-0.772-0.738-1.564-1.757-2.142-2.727c-0.596-0.991-1.009-2.04-1.209-3.067c-0.404-2.066,0.162-4.028,1.429-5.824
	c1.219-1.765,2.839-2.784,4.862-3.036c1.001-0.146,2.09-0.106,3.186,0.082c0.548,0.091,1.097,0.227,1.642,0.377
	c0.518,0.146,1.137,0.364,1.504,0.525l4.756,2.088L147.91,83.56z"/>
<path fill="none" stroke="#3E2670" stroke-width="5" stroke-miterlimit="10" d="M225.17,84.128c0,0-10.553-4.426-23.149-2.723
	c-19.89,2.688-42.213,16.681-50.383,32.17c0,0,5.277,8.851,5.617,14.979c0.34,6.124-1.557,12.406-0.851,15.66
	c3.064,14.128,10.383,43.574,10.383,43.574s-8.851,6.979-15.319,5.277c-7.243-1.906-7.149-6.468-7.149-6.468
	s-5.787,6.809-12.596,2.383c-4.993-3.245-3.745-10.894-3.745-10.894s-7.83,4.766-11.574,0.681
	c-5.169-5.639-1.702-11.234-1.702-11.234s-6.809,2.723-11.234-3.404c-4.09-5.663,1.702-12.255,1.702-12.255
	s-7.396-0.741-8.511-7.149c-1.362-7.83,4.085-10.553,4.085-10.553s-6.809-1.515-6.809-9.191c0-7.149,8.17-8.851,8.17-8.851
	s-6.809-5.787-4.34-12.511c2.865-7.803,10.128-7.234,10.128-7.234s-5.058-6.545-1.021-12.936c4.085-6.468,12.596-4.426,12.596-4.426
	s-3.745-6.809,2.723-12.596c6.017-5.384,13.957,0,13.957,0s-1.702-7.489,7.149-10.894c7.085-2.725,12.17,3.149,12.17,3.149
	s2.553-6.638,8.936-7.149c6.637-0.531,10.553,5.66,10.553,5.66s3.999-7.809,12.255-5.745c8.17,2.043,7.83,9.702,7.83,9.702
	s6.035-4.002,11.234-1.191C212.574,63.362,212.915,70,212.915,70s5.836-1.994,10.723,2.894
	C228.404,77.66,225.17,84.128,225.17,84.128z"/>
</svg>
